FlatUX/src/svg/Sega - Beena-content.svg

<svg enable-background="new 0 0 256 256" viewBox="0 0 256 256" xmlns="http://www.w3.org/2000/svg"><path d="m221.997 244h-187.994c-7.702 0-14.003-6.301-14.003-14.003v-213.329c0-2.568 2.1-4.668 4.668-4.668h178.658c17.971 0 32.674 14.703 32.674 32.674v185.323c0 7.702-6.301 14.003-14.003 14.003z" fill="#dadfe0"/><path d="m40 24h-8v212h168v-96h8.588c6.276 0 15.412-5.724 15.412-12v-84c0-12.359-8-20-20-20z" fill="#bdc1c6"/><path d="m204 28h-4-4-160v204h164v-92h4z" fill="#1b80bb"/><g fill="#ececed"><path d="m41.691 52h-11.382c-1.275 0-2.309-1.034-2.309-2.309v-11.382c0-1.275 1.034-2.309 2.309-2.309h11.381c1.276 0 2.31 1.034 2.31 2.309v11.381c0 1.276-1.034 2.31-2.309 2.31z"/><path d="m41.691 224h-11.382c-1.275 0-2.309-1.034-2.309-2.309v-11.381c0-1.275 1.034-2.309 2.309-2.309h11.381c1.275 0 2.309 1.034 2.309 2.309v11.381c.001 1.275-1.033 2.309-2.308 2.309z"/></g></svg>

<svg xmlns="http://www.w3.org/2000/svg" viewBox="0 0 256 256"><path fill="#dadfe0" d="M221.997 244H34.003C26.301 244 20 237.699 20 229.997V16.668A4.68 4.68 0 0 1 24.668 12h178.658C221.297 12 236 26.703 236 44.674v185.323c0 7.702-6.301 14.003-14.003 14.003"/><path fill="#bdc1c6" d="M40 24h-8v212h168v-96h8.588c6.276 0 15.412-5.724 15.412-12V44c0-12.359-8-20-20-20z"/><path fill="#1b80bb" d="M204 28H36v204h164v-92h4z"/><path fill="#ececed" d="M41.691 52H30.309A2.31 2.31 0 0 1 28 49.691V38.309A2.31 2.31 0 0 1 30.309 36H41.69A2.31 2.31 0 0 1 44 38.309V49.69A2.31 2.31 0 0 1 41.691 52m0 172H30.309A2.31 2.31 0 0 1 28 221.691V210.31a2.31 2.31 0 0 1 2.309-2.309H41.69a2.31 2.31 0 0 1 2.309 2.309v11.381A2.31 2.31 0 0 1 41.691 224"/></svg>
